Suru++-Ubuntu/apps/symbolic/zim-symbolic.svg

<svg width="16" height="16" version="1.1" xmlns="http://www.w3.org/2000/svg">
 <path d="m9.782815 6.8071901-0.750563 0.780992 4.361382 4.1788139 0.750563-0.780993z" style="fill:#808080;opacity:.3"/>
 <rect x="11.33" y="10.05" width="4.169" height="2.182" ry=".675" style="fill:#808080"/>
 <path d="m7.318128 2.0705262 0.01014 4.3918099h1.085273l-0.01014-4.3918099z" style="fill:#808080;opacity:.3"/>
 <rect x="5.32" y=".9" width="4.591" height="2.382" ry=".833" style="fill:#808080"/>
 <path d="m9.133679 8.9980241-1.054845 0.263711 1.176558 4.8786629 1.054846-0.253568z" style="fill:#808080;opacity:.3"/>
 <path d="m2.469894 3.5107965-0.750564 0.780992 4.371525 4.1788126 0.750563-0.780992z" style="fill:#808080;opacity:.3"/>
 <rect x=".79" y="3.58" width="4.565" height="2.355" ry=".835" style="fill:#808080"/>
 <path d="m0.5 14.488013c0.525434 0.655478 1.821828-0.446825 2.22021-0.441124 0.661017 0.0095 1.068593-0.0081 1.638975-0.03917 0.738722-0.04029 1.454902-0.431606 1.526084-1.413537 0.0099-0.136339 0.08279-0.29425-0.01632-0.38563-0.298908-0.27559-0.777805-0.776461-1.085424-1.203969" style="fill-rule:evenodd;fill:#808080"/>
 <path d="m15.236631 2.3912015s-0.136137-0.1605814-0.36721-0.266241c-0.577324-0.2639855-4.151591 1.8700096-4.437531 2.0182613-0.285936 0.1482531-3.493666 2.0216273-4.499073 3.1604723-1.005406 1.138845-1.060317 0.682481-1.196931 1.93588 0.346628 0.461012 1.120549 1.5419519 1.660529 1.9795989 1.290534 0.04042 1.240569 0.276103 2.534455-0.539286 1.293888-0.8153899 3.636178-3.6591329 3.825954-3.9152049 0.189779-0.256071 2.740766-3.3952428 2.658566-4.0129069-0.030994-0.2328899-0.22806-0.4134847-0.22806-0.4134847" style="fill-rule:evenodd;fill:#808080"/>
 <rect x="7.7" y="12.74" width="4.023" height="2.255" ry=".785" style="fill:#808080"/>
 <path d="m0.644591 14.64853c-0.549089-0.635793 0.77043-1.710307 0.837213-2.103092 0.110819-0.651731 0.2021-1.04934 0.336336-1.604571 0.173849-0.719104 0.68879-1.3522569 1.667309-1.2438269 0.135868 0.01502 0.304395-0.02795 0.376245 0.08612 0.216687 0.3440089 0.622199 0.9059479 0.986693 1.2861279" style="fill-rule:evenodd;fill:#808080"/>
</svg>

<svg xmlns="http://www.w3.org/2000/svg" width="16" height="16" version="1.1">
 <path style="opacity:0.3;fill:#808080" d="m 9.782815,6.8071901 -0.750563,0.780992 4.361382,4.1788139 0.750563,-0.780993 z"/>
 <rect style="fill:#808080" width="4.169" height="2.182" x="11.33" y="10.05" ry=".675"/>
 <path style="opacity:0.3;fill:#808080" d="m 7.318128,2.0705262 0.01014,4.3918099 H 8.413541 L 8.403401,2.0705262 Z"/>
 <rect style="fill:#808080" width="4.591" height="2.382" x="5.32" y=".9" ry=".833"/>
 <path style="opacity:0.3;fill:#808080" d="M 9.133679,8.9980241 8.078834,9.2617351 9.255392,14.140398 10.310238,13.88683 Z"/>
 <path style="opacity:0.3;fill:#808080" d="M 2.469894,3.5107965 1.71933,4.2917885 6.090855,8.4706011 6.841418,7.6896091 Z"/>
 <rect style="fill:#808080" width="4.565" height="2.355" x=".79" y="3.58" ry=".835"/>
 <path d="m 0.5,14.488013 c 0.525434,0.655478 1.821828,-0.446825 2.22021,-0.441124 0.661017,0.0095 1.068593,-0.0081 1.638975,-0.03917 0.738722,-0.04029 1.454902,-0.431606 1.526084,-1.413537 0.0099,-0.136339 0.08279,-0.29425 -0.01632,-0.38563 -0.298908,-0.27559 -0.777805,-0.776461 -1.085424,-1.203969" style="fill:#808080;fill-rule:evenodd"/>
 <path d="m 15.236631,2.3912015 c 0,0 -0.136137,-0.1605814 -0.36721,-0.266241 C 14.292097,1.860975 10.71783,3.9949701 10.43189,4.1432218 10.145954,4.2914749 6.938224,6.1648491 5.932817,7.3036941 4.927411,8.4425391 4.8725,7.9861751 4.735886,9.2395741 5.082514,9.7005861 5.856435,10.781526 6.396415,11.219173 7.686949,11.259593 7.636984,11.495276 8.93087,10.679887 10.224758,9.8644971 12.567048,7.0207541 12.756824,6.7646821 12.946603,6.5086111 15.49759,3.3694393 15.41539,2.7517752 15.384396,2.5188853 15.18733,2.3382905 15.18733,2.3382905" style="fill:#808080;fill-rule:evenodd"/>
 <rect style="fill:#808080" width="4.023" height="2.255" x="7.7" y="12.74" ry=".785"/>
 <path d="m 0.644591,14.64853 c -0.549089,-0.635793 0.77043,-1.710307 0.837213,-2.103092 0.110819,-0.651731 0.2021,-1.04934 0.336336,-1.604571 0.173849,-0.719104 0.68879,-1.3522569 1.667309,-1.2438269 0.135868,0.01502 0.304395,-0.02795 0.376245,0.08612 0.216687,0.3440089 0.622199,0.9059479 0.986693,1.2861279" style="fill:#808080;fill-rule:evenodd"/>
</svg>
